X: 30492
T: Old, The
R: waltz
M: 3/4
K: Gmajor
(D/E/F)|G3 A (B/A/G)|A2 E2 G2|c3 B c>B|c2 E2 G2|
{A}G3 A (B/A/G)|A2 E2 G2|A6|{c}A4 (D/E/F)||
G3 A (B/A/G)|A2 E2 G2|c>B c>B c>d|.e2 g2 {a}ge|
d3 B (G/A/B)|A2 E2 D2|G6|{A}G3 B d>f||
g2 ~f2 ~e2|d2 B2 G2|c3 d e>f|g3 d e>f|
g2 ~f2 ~e2|d2 B2 G2|A6|{c}A3 B d>f||
g2 ~f2 ~e2|d2 B2 G2|c>B c>B c>d|.e2 g2 {a}ge|
d2 B2 (G/A/B)|A2 E2 D2|G6|{A}G4||

